X:85
T:Persian Farewel
B:Preston's Twenty four COUNTRY DANCES for the Year 1801
L:1/16
M:2/4
O:England
Z:Richard Robinson 
%%Dancenotes:Hands  around, down the middle, up again & right & left
%%Page:9
%%TUNEURL: http://www.leeds.ac.uk/music/Info/RRTuneBk/gettune/00001176.html
%%ID:00001176
K:Bb
f2f2 gfed | e2e2 c4 | BcdB cdec | d2f2 c4 | \
f2f2 gfed | e2e2 c4 | defg fedc | d2B2 B4 ::
c2c2 dcBA | d2d2 B2B2 | d2d2 edcB | e2e2 c2c2 | \
f2f2 fgaf | abag f2cA | G2Bd cABG | F2GA Bcde !D.C.! |]
